X: 1279
T: Kâr Etmez Âhım
C: (Anonim)
O: Turkey
F: http://compmusic.upf.edu/node/140
N: saba--turku--azeriyuruksemai--kar_etmez--
N: makam= saba
N: form= turku
N: usul= azeriyuruksemai = 6/8
M: 6/8
L: 1/16
K: C _2/4B _3/4d  
Q: 1/4=228
%%MIDI tuningsystem comma53
d3c d2d2 c2B2  | c3B c2c2 B2A2  | B4 c2c2 B2A2  | \
w:  ARANAĞME  |   |   | 
A6d6  | d3c d2d2 c2B2  | 
w:   |   | 
c3B c2c2 B2A2  | B4 c2c2 B2A2  | A6^3/4FG ABcd  | \
w:   |   |   | 
d3c d2d2 c2B2  | 
w:  ARANAĞME  | 
c3B c2c2 B2A2  | B4 c2c2 B2A2  | A6d6  | \
w:   |   |   | 
d3c d2d2 c2B2  | c3B c2c2 B2A2  | 
w:   |   | 
B4 c2c2 B2A2  | A4 A2G2 A4  | G2A4B2 c2{d}B2  | \
w:   |   |  Kâr_ et mez_ â  | 
c6G2 c4  | c2{d}c2 d2d2 c2B2  | 
w:  hım  SAZ  |  sen  *  *  gü li zâ  | 
c6{d}c2 B2A2  | G2A4B2 c2{d}B2  | c6G2 c4  | \
w:  re   *  SAZ  |  Kâr_ et mez_ â  |  hım  SAZ  | 
c2{d}c2 d2d2 c2B2  | c6cd ecd2  | 
w:  sen  *  *  gü li zâ  |  re   SAZ  | 
c2{d}c2 d2d2 c2B2  | c2B2 c2c2 B2A2  | \
w:  O *  nul *  maz  iş  |  ler  *  gü ze lim   | 
B2{c}B2 c2c2 B2A2  | A6d6  | c2{d}c2 d2d2 c2B2  | 
w:  dil *  *  de  bu  yâ  |  re  ah    |  O *  nul *  maz  iş  | 
c2B2 c2c2 B2A2  | B2{c}B2 c2c2 B2A2  | \
w:  ler  *  gü ze lim   |  dil *  *  de  bu  yâ  | 
A6G2 A4  | G2A4B2 c2{d}B2  | c6G2 c4  | 
w:  re   SAZ  |  Ol sam  da  geç  |  mem  SAZ  | 
c2{d}c2 d2d2 c2B2  | c6{d}c2 B2A2  | \
w:  bin  *  *  pa re  pa  |  re   *  SAZ  | 
G2A4B2 c2{d}B2  | c6G2 c4  | c2{d}c2 d2d2 c2B2  | 
w:  Ol sam  da  geç  |  mem  SAZ  |  bin  *  *  pa re  pa  | 
c6cd ecd2  | c2{d}c2 d2d2 c2B2  | c2B2 c2c2 B2A2  | \
w:  re   SAZ  |  Sev *  *  miş  bu lun  |  dum  *  gü ze lim   | 
B2{c}B2 c2c2 B2A2  | 
w:  gay *  *  rı  ne  ça  | 
A6d6  | c2{d}c2 d2d2 c2B2  | c2B2 c2c2 B2A2  | \
w:  re  ah    |  Sev *  *  miş  bu lun  |  dum  *  gü ze lim   | 
B2{c}B2 c2c2 B2A2  | A6G2 A4  | 
w:  gay *  *  rı  ne  ça  |  re   SAZ  | 
d3c d2d2 c2B2  | c3B c2c2 B2A2  | B4 c2c2 B2A2  | \
w:  ARANAĞME  |   |   | 
A6d6  | d3c d2d2 c2B2  | 
w:   |   | 
c3B c2c2 B2A2  | B4 c2c2 B2A2  | A6^3/4FG ABcd  | \
w:   |   |   | 
d3c d2d2 c2B2  | 
w:  ARANAĞME  | 
c3B c2c2 B2A2  | B4 c2c2 B2A2  | A6d6  | \
w:   |   |   | 
d3c d2d2 c2B2  | c3B c2c2 B2A2  | 
w:   |   | 
B4 c2c2 B2A2  | A4 A2G2 A4  | G2A4B2 c2{d}B2  | \
w:   |   |  Kâr_ et mez_ â  | 
c6G2 c4  | c2{d}c2 d2d2 c2B2  | 
w:  hım  SAZ  |  sen  *  *  gü li zâ  | 
c6{d}c2 B2A2  | G2A4B2 c2{d}B2  | c6G2 c4  | \
w:  re   *  SAZ  |  Kâr_ et mez_ â  |  hım  SAZ  | 
c2{d}c2 d2d2 c2B2  | c6cd ecd2  | 
w:  sen  *  *  gü li zâ  |  re   SAZ  | 
c2{d}c2 d2d2 c2B2  | c2B2 c2c2 B2A2  | \
w:  O *  nul *  maz  iş  |  ler  *  gü ze lim   | 
B2{c}B2 c2c2 B2A2  | A6d6  | c2{d}c2 d2d2 c2B2  | 
w:  dil *  *  de  bu  yâ  |  re  ah    |  O *  nul *  maz  iş  | 
c2B2 c2c2 B2A2  | B2{c}B2 c2c2 B2A2  | \
w:  ler  *  gü ze lim   |  dil *  *  de  bu  yâ  | 
A6G2 A4  | G2A4B2 c2{d}B2  | c6G2 c4  | 
w:  re   SAZ  |  Ol sam  da  geç  |  mem  SAZ  | 
c2{d}c2 d2d2 c2B2  | c6{d}c2 B2A2  | \
w:  bin  *  *  pa re  pa  |  re   *  SAZ  | 
G2A4B2 c2{d}B2  | c6G2 c4  | c2{d}c2 d2d2 c2B2  | 
w:  Ol sam  da  geç  |  mem  SAZ  |  bin  *  *  pa re  pa  | 
c6cd ecd2  | c2{d}c2 d2d2 c2B2  | c2B2 c2c2 B2A2  | \
w:  re   SAZ  |  Sev *  *  miş  bu lun  |  dum  *  gü ze lim   | 
B2{c}B2 c2c2 B2A2  | 
w:  gay *  *  rı  ne  ça  | 
A6d6  | c2{d}c2 d2d2 c2B2  | c2B2 c2c2 B2A2  | \
w:  re  ah    |  Sev *  *  miş  bu lun  |  dum  *  gü ze lim   | 
B2{c}B2 c2c2 B2A2  | A6G2 A4  | 
w:  gay *  *  rı  ne  ça  |  re   SAZ  | 
|


